X:1
T:Harwich (Mason), HM
T:Harwich (Mason), HM
T:Lowell Mason, 1835
T:Public Domain Courtesy of the Cyber Hymnal™
C:Lowell Mason, 1835
Z:Public Domain
Z:Courtesy of the Cyber Hymnal™
%%score ( 1 2 ) ( 3 4 )
L:1/8
Q:1/4=112
M:4/4
K:F
V:1 treble 
V:2 treble 
V:3 bass 
V:4 bass 
V:1
 [Fc]4 | [Fc]2 [Fc]2 [Fd]2 [Fd]2 | [Fc]4 [Gc]4 | [FA]2 [GB]2 [FA]2 [EG]2 | F4 [EG]4 | %5
 [EG]2 [EG]2 [FA]2 [FA]2 | [EG]4 G4 | [FA]2 [Fd]2 [Ec]2 [D=B]2 | !fermata![Ec]4 [Ec]4 | %9
 [Fc]2 [FA]2 [FB]2 [Fc]2 | [Fd]4 [Fd]4 | [Fc]4 [Gc]4 | [Fc]2 E2 [DF]2 [GB]2 | [FA]4 [EG]4 | %14
 !fermata!F4 |] %15
V:2
 x4 | x8 | x8 | x8 | F4 x4 | x8 | x4 G4 | x8 | x8 | x8 | x8 | x8 | x2 E2 x4 | x8 | F4 |] %15
V:3
 [F,A,]4 | [F,A,]2 [F,A,]2 [B,,B,]2 [B,,B,]2 | [F,A,]4 [E,C]4 | [F,C]2 [B,,D]2 [C,C]2 [C,B,]2 | %4
 [F,A,]4 [C,C]4 | [C,C]2 [C,C]2 [F,C]2 [F,C]2 | [C,C]4 [E,C]4 | F,2 [D,A,]2 G,2 [G,,G,]2 | %8
 !fermata![C,G,]4 [C,G,]4 | [F,A,]2 [F,C]2 [D,B,]2 [F,A,]2 | B,4 [B,,B,]4 | [F,A,]4 [E,C]4 | %12
 [F,A,]2 [C,G,]2 [D,F,]2 [B,,D]2 | [C,C]4 (C2 B,2) | !fermata![F,A,]4 |] %15
V:4
 x4 | x8 | x8 | x8 | x8 | x8 | x8 | F,2 G,2 x4 | x8 | x8 | B,4 x4 | x8 | x8 | x4 C,4 | x4 |] %15

